svg/icon/abt.svg

<svg height="32" viewBox="0 0 32 32" width="32" xmlns="http://www.w3.org/2000/svg" xmlns:xlink="http://www.w3.org/1999/xlink"><defs><linearGradient id="a" x1="50%" x2="50%" y1="0%" y2="100%"><stop offset="0" stop-color="#fff" stop-opacity=".5"/><stop offset="1" stop-opacity=".5"/></linearGradient><circle id="b" cx="16" cy="15" r="15"/><filter id="c" height="111.7%" width="111.7%" x="-5.8%" y="-4.2%"><feOffset dy=".5" in="SourceAlpha" result="shadowOffsetOuter1"/><feGaussianBlur in="shadowOffsetOuter1" result="shadowBlurOuter1" stdDeviation=".5"/><feComposite in="shadowBlurOuter1" in2="SourceAlpha" operator="out" result="shadowBlurOuter1"/><feColorMatrix in="shadowBlurOuter1" values="0 0 0 0 0   0 0 0 0 0   0 0 0 0 0  0 0 0 0.199473505 0"/></filter><path id="d" d="m6.5 9.48655257 9.5-5.48655257 9.5 5.48655257v11.02689483l-9.5 5.4865526-9.5-5.4865526zm.91242938 9.97002103 3.80946742-2.2042085 1.9334777-3.3857801-5.74294512-3.3229444zm.45621537.7919153 7.70197675 4.4481368v-4.2559543l-4.0377671-2.312343zm16.71892585-9.6737928-5.6914713 3.293161 1.9315906 3.382144 3.7598807 2.175517zm-.4291688-.80756473-7.675351-4.43275961v4.30832618l1.9597955 3.43152976zm-6.0477828 4.55521503-1.1713535.6777607 2.3244789 1.3449744zm-.4526371-.7939857-1.1749311-2.060985v2.7408157zm-4.8638939 2.8143137 2.3203188-1.3425673-1.1691452-.6764829zm-.3464435 1.2563443 3.122977 1.7884622v-3.5954582zm-4.57918501-7.84740056 5.74013461 3.32131816 1.9620274-3.43577436v-4.33378765zm16.28975701 10.48135746-3.6361176-2.103906-4.0390481 2.340945v4.1956136zm-4.5481671-2.6316299-3.1269986-1.809323v3.6216638zm-5.2121066-4.0716817 1.1726787.6785274v-2.7352954z"/><filter id="e" height="115.9%" width="118.4%" x="-9.2%" y="-5.7%"><feOffset dy=".5" in="SourceAlpha" result="shadowOffsetOuter1"/><feGaussianBlur in="shadowOffsetOuter1" result="shadowBlurOuter1" stdDeviation=".5"/><feColorMatrix in="shadowBlurOuter1" values="0 0 0 0 0   0 0 0 0 0   0 0 0 0 0  0 0 0 0.204257246 0"/></filter></defs><g fill="none" fill-rule="evenodd"><use fill="#000" filter="url(#c)" xlink:href="#b"/><use fill="#3effff" xlink:href="#b"/><use fill="url(#a)" xlink:href="#b"/><circle cx="16" cy="15" r="14.5" stroke="#000" stroke-opacity=".097"/><g fill-rule="nonzero"><use fill="#000" filter="url(#e)" xlink:href="#d"/><use fill="#fff" fill-rule="evenodd" xlink:href="#d"/></g></g></svg>

<svg xmlns="http://www.w3.org/2000/svg" xmlns:xlink="http://www.w3.org/1999/xlink" width="32" height="32" viewBox="0 0 32 32">
  <defs>
    <linearGradient id="abt-c" x1="50%" x2="50%" y1="0%" y2="100%">
      <stop offset="0%" stop-color="#FFF" stop-opacity=".5"/>
      <stop offset="100%" stop-opacity=".5"/>
    </linearGradient>
    <circle id="abt-b" cx="16" cy="15" r="15"/>
    <filter id="abt-a" width="111.7%" height="111.7%" x="-5.8%" y="-4.2%" filterUnits="objectBoundingBox">
      <feOffset dy=".5" in="SourceAlpha" result="shadowOffsetOuter1"/>
      <feGaussianBlur in="shadowOffsetOuter1" result="shadowBlurOuter1" stdDeviation=".5"/>
      <feComposite in="shadowBlurOuter1" in2="SourceAlpha" operator="out" result="shadowBlurOuter1"/>
      <feColorMatrix in="shadowBlurOuter1" values="0 0 0 0 0   0 0 0 0 0   0 0 0 0 0  0 0 0 0.199473505 0"/>
    </filter>
    <path id="abt-e" d="M6.5,9.48655257 L16,4 L25.5,9.48655257 L25.5,20.5134474 L16,26 L6.5,20.5134474 L6.5,9.48655257 Z M7.41242938,19.4565736 L11.2218968,17.2523651 L13.1553745,13.866585 L7.41242938,10.5436406 L7.41242938,19.4565736 Z M7.86864475,20.2484889 L15.5706215,24.6966257 L15.5706215,20.4406714 L11.5328544,18.1283284 L7.86864475,20.2484889 Z M24.5875706,10.5746961 L18.8960993,13.8678571 L20.8276899,17.2500011 L24.5875706,19.4255181 L24.5875706,10.5746961 Z M24.1584018,9.76713137 L16.4830508,5.33437176 L16.4830508,9.64269794 L18.4428463,13.0742277 L24.1584018,9.76713137 Z M18.110619,14.3223464 L16.9392655,15.0001071 L19.2637444,16.3450815 L18.110619,14.3223464 Z M17.6579819,13.5283607 L16.4830508,11.4673757 L16.4830508,14.2081914 L17.6579819,13.5283607 Z M12.794088,16.3426744 L15.1144068,15.0001071 L13.9452616,14.3236242 L12.794088,16.3426744 Z M12.4476445,17.5990187 L15.5706215,19.3874809 L15.5706215,15.7920227 L12.4476445,17.5990187 Z M7.86845949,9.75161814 L13.6085941,13.0729363 L15.5706215,9.63716194 L15.5706215,5.30337429 L7.86845949,9.75161814 Z M24.1582165,20.2329756 L20.5220989,18.1290696 L16.4830508,20.4700146 L16.4830508,24.6656282 L24.1582165,20.2329756 Z M19.6100494,17.6013457 L16.4830508,15.7920227 L16.4830508,19.4136865 L19.6100494,17.6013457 Z M14.3979428,13.529664 L15.5706215,14.2081914 L15.5706215,11.472896 L14.3979428,13.529664 Z"/>
    <filter id="abt-d" width="118.4%" height="115.9%" x="-9.2%" y="-5.7%" filterUnits="objectBoundingBox">
      <feOffset dy=".5" in="SourceAlpha" result="shadowOffsetOuter1"/>
      <feGaussianBlur in="shadowOffsetOuter1" result="shadowBlurOuter1" stdDeviation=".5"/>
      <feColorMatrix in="shadowBlurOuter1" values="0 0 0 0 0   0 0 0 0 0   0 0 0 0 0  0 0 0 0.204257246 0"/>
    </filter>
  </defs>
  <g fill="none" fill-rule="evenodd">
    <use fill="#000" filter="url(#abt-a)" xlink:href="#abt-b"/>
    <use fill="#3EFFFF" xlink:href="#abt-b"/>
    <use fill="url(#abt-c)" style="mix-blend-mode:soft-light" xlink:href="#abt-b"/>
    <circle cx="16" cy="15" r="14.5" stroke="#000" stroke-opacity=".097"/>
    <g fill-rule="nonzero">
      <use fill="#000" filter="url(#abt-d)" xlink:href="#abt-e"/>
      <use fill="#FFF" fill-rule="evenodd" xlink:href="#abt-e"/>
    </g>
  </g>
</svg>
